X:1
T:Gamsjaeger-Polka
C:traditionell
R:Polka
A:Tirol
%%textfont Helvetica-Narrow 10pt
%%begintext align
B:"Pfeifermusik aus Tirol", Karl Horak, Edition Helbling, Innsbruck, 1982
N:im buch auf Seite 33 in D (1. 2.teil) und G (3. 4.teil)
%%endtext
Z:abc transcription Simon Wascher
M:2/4
L:1/16
K:D
({d}f2)A2 d4 | ({d}f2)A2 d4 | ({f}g2)gf e2e2 | ({e}f2)fe d2d2 |
({d}f2)A2 d4 | ({d}f2)A2 d4 | ({f}g2)gf e2f2 | d2z2 :|
|:\
({c}e2)ed c2A2 | d2e2 f2f2 | ({f}g2)gf e2e2 | ({e}f2)fe d2d2 |
({c}e2)ed c2A2 | d2e2 f2f2 | ({f}g2)gf e2f2 | d2f2 d4 :|
K:G
|:\
d4 B3c | d4 z2g2 | f2e2 d2c2 | e2d2 z4 |
d4 B3c | d4 z2g2 | f2e2 d2f2 | g4 z4 :|
|:\
G4 c2e2 | g4 z2fe | d2B2G2 de | d2c2F2 de |
d2B2 G4 | G4 c2e2 | g4 z2fe | d2c2 B2A2 |
G2B2 G4 :|
%%wordsfont Times-Italic 11pt
W:aus Simon Waschers TradArchiv
